icon/ir/donate.svg

<svg stroke-width="1.5" viewBox="0 0 24 24" fill="none" xmlns="http://www.w3.org/2000/svg" height="1em" width="1em">
  <path d="M16 6.27975C16 6.88118 15.7625 7.45883 15.3383 7.88611C14.3619 8.87007 13.415 9.89605 12.4021 10.8443C12.17 11.0585 11.8017 11.0507 11.5795 10.8268L8.6615 7.88611C7.7795 6.99725 7.7795 5.56225 8.6615 4.67339C9.55218 3.77579 11.0032 3.77579 11.8938 4.67339L11.9999 4.78027L12.1059 4.67345C12.533 4.24286 13.1146 4 13.7221 4C14.3297 4 14.9113 4.24284 15.3383 4.67339C15.7625 5.10073 16 5.67835 16 6.27975Z" stroke="currentColor" stroke-linejoin="round"/>
  <path d="M18 20L21.8243 16.1757C21.9368 16.0632 22 15.9106 22 15.7515V10.5C22 9.67157 21.3284 9 20.5 9V9C19.6716 9 19 9.67157 19 10.5V15" stroke="currentColor" stroke-linecap="round" stroke-linejoin="round"/>
  <path d="M18 16L18.8581 15.1419C18.949 15.051 19 14.9278 19 14.7994V14.7994C19 14.6159 18.8963 14.4482 18.7322 14.3661L18.2893 14.1447C17.5194 13.7597 16.5894 13.9106 15.9807 14.5193L15.0858 15.4142C14.7107 15.7893 14.5 16.298 14.5 16.8284V20" stroke="currentColor" stroke-linecap="round" stroke-linejoin="round"/>
  <path d="M6 20L2.17574 16.1757C2.06321 16.0632 2 15.9106 2 15.7515V10.5C2 9.67157 2.67157 9 3.5 9V9C4.32843 9 5 9.67157 5 10.5V15" stroke="currentColor" stroke-linecap="round" stroke-linejoin="round"/>
  <path d="M6 16L5.14187 15.1419C5.05103 15.051 5 14.9278 5 14.7994V14.7994C5 14.6159 5.10366 14.4482 5.26776 14.3661L5.71067 14.1447C6.48064 13.7597 7.41059 13.9106 8.01931 14.5193L8.91421 15.4142C9.28929 15.7893 9.5 16.298 9.5 16.8284V20" stroke="currentColor" stroke-linecap="round" stroke-linejoin="round"/>
</svg>

<svg width="24" height="24" stroke-width="1.5" fill="none" xmlns="http://www.w3.org/2000/svg"><path d="M16 6.28a2.28 2.28 0 0 1-.662 1.606c-.976.984-1.923 2.01-2.936 2.958a.597.597 0 0 1-.822-.017l-2.918-2.94a2.281 2.281 0 0 1 0-3.214 2.277 2.277 0 0 1 3.232 0L12 4.78l.106-.107A2.276 2.276 0 0 1 16 6.28Z" stroke="currentColor" stroke-linejoin="round"/><path d="m18 20 3.824-3.824a.6.6 0 0 0 .176-.424V10.5A1.5 1.5 0 0 0 20.5 9v0a1.5 1.5 0 0 0-1.5 1.5V15" stroke="currentColor" stroke-linecap="round" stroke-linejoin="round"/><path d="m18 16 .858-.858a.484.484 0 0 0 .142-.343v0a.485.485 0 0 0-.268-.433l-.443-.221a2 2 0 0 0-2.308.374l-.895.895a2 2 0 0 0-.586 1.414V20M6 20l-3.824-3.824A.6.6 0 0 1 2 15.752V10.5A1.5 1.5 0 0 1 3.5 9v0A1.5 1.5 0 0 1 5 10.5V15" stroke="currentColor" stroke-linecap="round" stroke-linejoin="round"/><path d="m6 16-.858-.858A.485.485 0 0 1 5 14.799v0c0-.183.104-.35.268-.433l.443-.221a2 2 0 0 1 2.308.374l.895.895a2 2 0 0 1 .586 1.414V20" stroke="currentColor" stroke-linecap="round" stroke-linejoin="round"/></svg>
